packages/pwa-kit-build/src/ssr/server/loading-screen/img/codey-cloud.svg

<svg height="81.352" viewBox="118.599 73.528 129.047 81.352" width="129.047" xmlns="http://www.w3.org/2000/svg"><g fill="#fff" transform="translate(-286.432037 -120.232857)"><path d="m434.853 248.862c-1.227 1.845-2.959 3.298-4.99 4.184-2.03.886-4.273 1.169-6.46.814s-4.225-1.333-5.871-2.816c-1.646-1.484-2.829-3.41-3.409-5.548-.58-2.139-.531-4.399.14-6.511.672-2.111 1.937-3.984 3.646-5.395 1.708-1.411 3.787-2.3 5.987-2.561 2.2-.26 4.429.119 6.419 1.092l-.091-.07c.005-1.112.268-2.209.771-3.202.502-.993 1.229-1.854 2.123-2.517.894-.662 1.931-1.107 3.027-1.299s2.222-.125 3.287.194l.169.169c0-3.945 1.567-7.729 4.357-10.518 2.789-2.79 6.573-4.357 10.518-4.357s7.728 1.567 10.518 4.357c2.789 2.789 4.357 6.573 4.357 10.518v.301c2.532-.688 5.228-.434 7.587.715 2.359 1.15 4.221 3.116 5.24 5.534 1.089-.441 2.254-.667 3.429-.666 1.68-.004 3.327.462 4.755 1.346h.091c-.034-1.248.182-2.491.637-3.655.454-1.164 1.137-2.225 2.008-3.12s1.913-1.607 3.064-2.093c1.15-.486 2.387-.736 3.636-.736s2.486.25 3.637.736 2.192 1.198 3.064 2.093c.871.895 1.554 1.956 2.008 3.12s.67 2.407.636 3.655l.091-.084c.422-.124.859-.188 1.298-.189 1.19.002 2.33.475 3.172 1.316.841.842 1.314 1.982 1.316 3.172l-.056.042c1.251-.611 2.651-.848 4.034-.684 1.382.164 2.688.723 3.761 1.61s1.868 2.064 2.289 3.391.452 2.747.087 4.09c-.364 1.344-1.108 2.554-2.142 3.485-1.035.932-2.315 1.546-3.69 1.769-1.374.223-2.783.045-4.059-.512-1.275-.557-2.364-1.47-3.134-2.629l-.063-.147h-.056c-.828 1.72-2.097 3.188-3.679 4.256-1.582 1.067-3.42 1.694-5.324 1.817-1.905.122-3.808-.264-5.514-1.119s-3.153-2.149-4.195-3.748h-.175c-.706 1.222-1.721 2.236-2.944 2.942-1.222.705-2.609 1.077-4.02 1.077l-.105-.085c-.211.253-.435.505-.701.751-2.421 2.414-5.699 3.769-9.118 3.769-3.418 0-6.696-1.355-9.117-3.769h-.042c-.774-.76-1.448-1.615-2.005-2.546h-.232c-1.658 2.544-3.962 4.601-6.677 5.96-2.715 1.36-5.742 1.973-8.772 1.777-3.03-.197-5.953-1.195-8.47-2.894-2.516-1.698-4.536-4.035-5.852-6.772l-.091-.049"/><g stroke="#3a49da" stroke-linecap="round" stroke-linejoin="round" stroke-width="2"><path d="m490.432 232.647c0-1.625.424-3.222 1.23-4.633.805-1.412 1.965-2.589 3.364-3.415 1.4-.827 2.99-1.274 4.615-1.299 1.625-.024 3.228.376 4.652 1.16 1.423.785 2.617 1.927 3.465 3.313.847 1.387 1.318 2.971 1.367 4.595.049 1.625-.327 3.234-1.09 4.669s-1.887 2.646-3.261 3.514"/><path d="m506.345 226.048c1.766 1.767 2.758 4.164 2.758 6.663 0 2.498-.992 4.895-2.758 6.662-1.415 1.412-3.332 2.204-5.33 2.204-1.999 0-3.916-.792-5.33-2.204-1.131-1.132-1.767-2.667-1.767-4.267 0-1.601.636-3.136 1.767-4.268.905-.903 2.132-1.41 3.411-1.41 1.28 0 2.507.507 3.412 1.41.725.725 1.131 1.707 1.131 2.732 0 1.024-.406 2.007-1.131 2.731"/><path d="m514.943 236.883c1.251-.611 2.651-.848 4.033-.684 1.383.164 2.688.723 3.761 1.61s1.868 2.064 2.29 3.391c.421 1.327.451 2.747.087 4.09-.365 1.344-1.109 2.554-2.143 3.485-1.034.932-2.315 1.546-3.689 1.769s-2.783.045-4.059-.512-2.364-1.47-3.135-2.629"/><path d="m509.234 232.542c.421-.124.858-.188 1.297-.189 1.19.002 2.331.475 3.172 1.316.842.842 1.315 1.982 1.317 3.172"/><path d="m523.148 248.574c-1.345 1.344-3.169 2.099-5.071 2.099-1.901 0-3.725-.755-5.07-2.099-1.074-1.075-1.678-2.533-1.678-4.053s.604-2.978 1.678-4.054c.425-.427.931-.765 1.487-.997.557-.231 1.154-.35 1.756-.35.603 0 1.2.119 1.756.35.557.232 1.062.57 1.488.997.342.34.613.745.798 1.19s.28.923.28 1.405-.095.96-.28 1.405-.456.85-.798 1.19"/><path d="m511.969 247.284c-.827 1.72-2.097 3.188-3.679 4.256-1.582 1.067-3.419 1.694-5.324 1.817-1.904.122-3.807-.264-5.513-1.119s-3.154-2.149-4.195-3.748"/><path d="m493.104 248.497c-.706 1.222-1.722 2.237-2.944 2.942s-2.609 1.077-4.02 1.077"/><path d="m491.827 250.117c-1.506 1.51-3.547 2.365-5.68 2.378"/><path d="m482.157 231.946c1.089-.441 2.254-.667 3.429-.666 1.68-.004 3.327.462 4.755 1.346"/><path d="m439.432 225.227c-1.068-.32-2.195-.386-3.293-.193s-2.135.639-3.029 1.304c-.895.665-1.622 1.53-2.123 2.525-.501.996-.762 2.095-.763 3.209"/><path d="m430.315 232.121c-1.989-.971-4.216-1.348-6.414-1.087-2.198.262-4.274 1.151-5.981 2.561-1.706 1.41-2.97 3.282-3.64 5.392-.671 2.109-.719 4.367-.14 6.504.579 2.136 1.761 4.061 3.405 5.543s3.681 2.46 5.865 2.815c2.185.356 4.426.075 6.455-.81 2.03-.884 3.761-2.335 4.988-4.177"/><path d="m417.257 250.72c2.139 2.138 5.04 3.339 8.065 3.339s5.926-1.201 8.065-3.339c.848-.847 1.521-1.852 1.98-2.959.459-1.108.696-2.294.696-3.493 0-1.198-.237-2.385-.696-3.492s-1.132-2.113-1.98-2.96c-.677-.679-1.482-1.217-2.368-1.584-.885-.367-1.835-.557-2.794-.557-.958 0-1.908.19-2.794.557-.885.367-1.69.905-2.367 1.584-1.094 1.096-1.708 2.582-1.708 4.131s.614 3.034 1.708 4.131"/><path d="m435.049 248.665c1.315 2.737 3.335 5.074 5.852 6.772 2.517 1.699 5.44 2.697 8.47 2.894 3.029.196 6.057-.417 8.772-1.777 2.715-1.359 5.019-3.416 6.677-5.96"/><path d="m465.051 250.601c1.17 2.02 2.87 3.682 4.916 4.806s4.36 1.668 6.693 1.572c2.333-.095 4.595-.826 6.542-2.113 1.948-1.287 3.506-3.082 4.508-5.191"/><path d="m467.099 253.182c2.42 2.414 5.699 3.769 9.117 3.769s6.697-1.355 9.117-3.769c.966-.956 1.734-2.093 2.259-3.346.526-1.254.8-2.598.805-3.957s-.258-2.706-.774-3.963-1.275-2.4-2.234-3.364c-.767-.768-1.679-1.377-2.682-1.793s-2.078-.63-3.163-.63c-1.086 0-2.161.214-3.164.63s-1.915 1.025-2.682 1.793c-1.239 1.241-1.935 2.922-1.935 4.675s.696 3.434 1.935 4.674c.994.99 2.339 1.545 3.742 1.545 1.402 0 2.747-.555 3.741-1.545.396-.391.709-.857.924-1.371.214-.513.324-1.064.324-1.62s-.11-1.107-.324-1.621c-.215-.513-.528-.979-.924-1.37"/><path d="m469.322 225.676v-.301c0-3.945-1.568-7.729-4.357-10.518-2.79-2.79-6.573-4.357-10.518-4.357s-7.729 1.567-10.518 4.357c-2.79 2.789-4.357 6.573-4.357 10.518-.01 1.99.377 3.963 1.139 5.802.763 1.839 1.884 3.507 3.3 4.907 2.251 2.249 5.304 3.512 8.486 3.512s6.235-1.263 8.486-3.512c1.798-1.8 2.808-4.241 2.808-6.785 0-2.545-1.01-4.985-2.808-6.786-1.445-1.432-3.397-2.236-5.432-2.236-2.034 0-3.987.804-5.431 2.236-.571.57-1.023 1.247-1.332 1.992s-.468 1.543-.468 2.349c0 .807.159 1.605.468 2.35s.761 1.422 1.332 1.992"/><path d="m469.323 225.676c1.608-.435 3.295-.494 4.93-.172 1.634.322 3.173 1.017 4.496 2.029 1.323 1.013 2.396 2.316 3.134 3.81s1.122 3.138 1.122 4.804v.701"/></g></g></svg>

<?xml version="1.0" encoding="utf-8"?>
<svg viewBox="118.599 73.528 129.047 81.352" width="129.047" height="81.352" xmlns="http://www.w3.org/2000/svg">
  <g transform="matrix(1, 0, 0, 1, -286.432037, -120.232857)" style="">
    <title>cloud</title>
    <path d="M 434.853 248.862 C 433.626 250.707 431.894 252.16 429.863 253.046 C 427.833 253.932 425.59 254.215 423.403 253.86 C 421.216 253.505 419.178 252.527 417.532 251.044 C 415.886 249.56 414.703 247.634 414.123 245.496 C 413.543 243.357 413.592 241.097 414.263 238.985 C 414.935 236.874 416.2 235.001 417.909 233.59 C 419.617 232.179 421.696 231.29 423.896 231.029 C 426.096 230.769 428.325 231.148 430.315 232.121 L 430.224 232.051 C 430.229 230.939 430.492 229.842 430.995 228.849 C 431.497 227.856 432.224 226.995 433.118 226.332 C 434.012 225.67 435.049 225.225 436.145 225.033 C 437.241 224.841 438.367 224.908 439.432 225.227 L 439.601 225.396 C 439.601 221.451 441.168 217.667 443.958 214.878 C 446.747 212.088 450.531 210.521 454.476 210.521 C 458.421 210.521 462.204 212.088 464.994 214.878 C 467.783 217.667 469.351 221.451 469.351 225.396 L 469.351 225.697 C 471.883 225.009 474.579 225.263 476.938 226.412 C 479.297 227.562 481.159 229.528 482.178 231.946 C 483.267 231.505 484.432 231.279 485.607 231.28 C 487.287 231.276 488.934 231.742 490.362 232.626 L 490.453 232.626 C 490.419 231.378 490.635 230.135 491.09 228.971 C 491.544 227.807 492.227 226.746 493.098 225.851 C 493.969 224.956 495.011 224.244 496.162 223.758 C 497.312 223.272 498.549 223.022 499.798 223.022 C 501.047 223.022 502.284 223.272 503.435 223.758 C 504.586 224.244 505.627 224.956 506.499 225.851 C 507.37 226.746 508.053 227.807 508.507 228.971 C 508.961 230.135 509.177 231.378 509.143 232.626 L 509.234 232.542 C 509.656 232.418 510.093 232.354 510.532 232.353 C 511.722 232.355 512.862 232.828 513.704 233.669 C 514.545 234.511 515.018 235.651 515.02 236.841 L 514.964 236.883 C 516.215 236.272 517.615 236.035 518.998 236.199 C 520.38 236.363 521.686 236.922 522.759 237.809 C 523.832 238.696 524.627 239.873 525.048 241.2 C 525.469 242.527 525.5 243.947 525.135 245.29 C 524.771 246.634 524.027 247.844 522.993 248.775 C 521.958 249.707 520.678 250.321 519.303 250.544 C 517.929 250.767 516.52 250.589 515.244 250.032 C 513.969 249.475 512.88 248.562 512.11 247.403 L 512.047 247.256 L 511.991 247.256 C 511.163 248.976 509.894 250.444 508.312 251.512 C 506.73 252.579 504.892 253.206 502.988 253.329 C 501.083 253.451 499.18 253.065 497.474 252.21 C 495.768 251.355 494.321 250.061 493.279 248.462 L 493.104 248.462 C 492.398 249.684 491.383 250.698 490.16 251.404 C 488.938 252.109 487.551 252.481 486.14 252.481 L 486.035 252.396 C 485.824 252.649 485.6 252.901 485.334 253.147 C 482.913 255.561 479.635 256.916 476.216 256.916 C 472.798 256.916 469.52 255.561 467.099 253.147 L 467.057 253.147 C 466.283 252.387 465.609 251.532 465.052 250.601 L 464.82 250.601 C 463.162 253.145 460.858 255.202 458.143 256.561 C 455.428 257.921 452.401 258.534 449.371 258.338 C 446.341 258.141 443.418 257.143 440.901 255.444 C 438.385 253.746 436.365 251.409 435.049 248.672 L 434.958 248.623" style="fill: rgb(255, 255, 255);"/>
    <path d="M 490.432 232.647 C 490.432 231.022 490.856 229.425 491.662 228.014 C 492.467 226.602 493.627 225.425 495.026 224.599 C 496.426 223.772 498.016 223.325 499.641 223.3 C 501.266 223.276 502.869 223.676 504.293 224.46 C 505.716 225.245 506.91 226.387 507.758 227.773 C 508.605 229.16 509.076 230.744 509.125 232.368 C 509.174 233.993 508.798 235.602 508.035 237.037 C 507.272 238.472 506.148 239.683 504.774 240.551" stroke="#3a49da" stroke-linecap="round" stroke-linejoin="round" stroke-width="2" style="fill: rgb(255, 255, 255);"/>
    <path d="M 506.345 226.048 C 508.111 227.815 509.103 230.212 509.103 232.711 C 509.103 235.209 508.111 237.606 506.345 239.373 C 504.93 240.785 503.013 241.577 501.015 241.577 C 499.016 241.577 497.099 240.785 495.685 239.373 C 494.554 238.241 493.918 236.706 493.918 235.106 C 493.918 233.505 494.554 231.97 495.685 230.838 C 496.59 229.935 497.817 229.428 499.096 229.428 C 500.376 229.428 501.603 229.935 502.508 230.838 C 503.233 231.563 503.639 232.545 503.639 233.57 C 503.639 234.594 503.233 235.577 502.508 236.301" stroke="#3a49da" stroke-linecap="round" stroke-linejoin="round" stroke-width="2" style="fill: rgb(255, 255, 255);"/>
    <path d="M 514.943 236.883 C 516.194 236.272 517.594 236.035 518.976 236.199 C 520.359 236.363 521.664 236.922 522.737 237.809 C 523.81 238.696 524.605 239.873 525.027 241.2 C 525.448 242.527 525.478 243.947 525.114 245.29 C 524.749 246.634 524.005 247.844 522.971 248.775 C 521.937 249.707 520.656 250.321 519.282 250.544 C 517.908 250.767 516.499 250.589 515.223 250.032 C 513.947 249.475 512.859 248.562 512.088 247.403" stroke="#3a49da" stroke-linecap="round" stroke-linejoin="round" stroke-width="2" style="fill: rgb(255, 255, 255);"/>
    <path d="M 509.234 232.542 C 509.655 232.418 510.092 232.354 510.531 232.353 C 511.721 232.355 512.862 232.828 513.703 233.669 C 514.545 234.511 515.018 235.651 515.02 236.841" stroke="#3a49da" stroke-linecap="round" stroke-linejoin="round" stroke-width="2" style="fill: rgb(255, 255, 255);"/>
    <path d="M 523.148 248.574 C 521.803 249.918 519.979 250.673 518.077 250.673 C 516.176 250.673 514.352 249.918 513.007 248.574 C 511.933 247.499 511.329 246.041 511.329 244.521 C 511.329 243.001 511.933 241.543 513.007 240.467 C 513.432 240.04 513.938 239.702 514.494 239.47 C 515.051 239.239 515.648 239.12 516.25 239.12 C 516.853 239.12 517.45 239.239 518.006 239.47 C 518.563 239.702 519.068 240.04 519.494 240.467 C 519.836 240.807 520.107 241.212 520.292 241.657 C 520.477 242.102 520.572 242.58 520.572 243.062 C 520.572 243.544 520.477 244.022 520.292 244.467 C 520.107 244.912 519.836 245.317 519.494 245.657" stroke="#3a49da" stroke-linecap="round" stroke-linejoin="round" stroke-width="2" style="fill: rgb(255, 255, 255);"/>
    <path d="M 511.969 247.284 C 511.142 249.004 509.872 250.472 508.29 251.54 C 506.708 252.607 504.871 253.234 502.966 253.357 C 501.062 253.479 499.159 253.093 497.453 252.238 C 495.747 251.383 494.299 250.089 493.258 248.49" stroke="#3a49da" stroke-linecap="round" stroke-linejoin="round" stroke-width="2" style="fill: rgb(255, 255, 255);"/>
    <path d="M 493.104 248.497 C 492.398 249.719 491.382 250.734 490.16 251.439 C 488.938 252.144 487.551 252.516 486.14 252.516" stroke="#3a49da" stroke-linecap="round" stroke-linejoin="round" stroke-width="2" style="fill: rgb(255, 255, 255);"/>
    <path d="M 491.827 250.117 C 490.321 251.627 488.28 252.482 486.147 252.495" stroke="#3a49da" stroke-linecap="round" stroke-linejoin="round" stroke-width="2" style="fill: rgb(255, 255, 255);"/>
    <path d="M 482.157 231.946 C 483.246 231.505 484.411 231.279 485.586 231.28 C 487.266 231.276 488.913 231.742 490.341 232.626" stroke="#3a49da" stroke-linecap="round" stroke-linejoin="round" stroke-width="2" style="fill: rgb(255, 255, 255);"/>
    <path d="M 439.432 225.227 C 438.364 224.907 437.237 224.841 436.139 225.034 C 435.041 225.227 434.004 225.673 433.11 226.338 C 432.215 227.003 431.488 227.868 430.987 228.863 C 430.486 229.859 430.225 230.958 430.224 232.072" stroke="#3a49da" stroke-linecap="round" stroke-linejoin="round" stroke-width="2" style="fill: rgb(255, 255, 255);"/>
    <path d="M 430.315 232.121 C 428.326 231.15 426.099 230.773 423.901 231.034 C 421.703 231.296 419.627 232.185 417.92 233.595 C 416.214 235.005 414.95 236.877 414.28 238.987 C 413.609 241.096 413.561 243.354 414.14 245.491 C 414.719 247.627 415.901 249.552 417.545 251.034 C 419.189 252.516 421.226 253.494 423.41 253.849 C 425.595 254.205 427.836 253.924 429.865 253.039 C 431.895 252.155 433.626 250.704 434.853 248.862" stroke="#3a49da" stroke-linecap="round" stroke-linejoin="round" stroke-width="2" style="fill: rgb(255, 255, 255);"/>
    <path d="M 417.257 250.72 C 419.396 252.858 422.297 254.059 425.322 254.059 C 428.347 254.059 431.248 252.858 433.387 250.72 C 434.235 249.873 434.908 248.868 435.367 247.761 C 435.826 246.653 436.063 245.467 436.063 244.268 C 436.063 243.07 435.826 241.883 435.367 240.776 C 434.908 239.669 434.235 238.663 433.387 237.816 C 432.71 237.137 431.905 236.599 431.019 236.232 C 430.134 235.865 429.184 235.675 428.225 235.675 C 427.267 235.675 426.317 235.865 425.431 236.232 C 424.546 236.599 423.741 237.137 423.064 237.816 C 421.97 238.912 421.356 240.398 421.356 241.947 C 421.356 243.496 421.97 244.981 423.064 246.078" stroke="#3a49da" stroke-linecap="round" stroke-linejoin="round" stroke-width="2" style="fill: rgb(255, 255, 255);"/>
    <path d="M 435.049 248.665 C 436.364 251.402 438.384 253.739 440.901 255.437 C 443.418 257.136 446.341 258.134 449.371 258.331 C 452.4 258.527 455.428 257.914 458.143 256.554 C 460.858 255.195 463.162 253.138 464.82 250.594" stroke="#3a49da" stroke-linecap="round" stroke-linejoin="round" stroke-width="2" style="fill: rgb(255, 255, 255);"/>
    <path d="M 465.051 250.601 C 466.221 252.621 467.921 254.283 469.967 255.407 C 472.013 256.531 474.327 257.075 476.66 256.979 C 478.993 256.884 481.255 256.153 483.202 254.866 C 485.15 253.579 486.708 251.784 487.71 249.675" stroke="#3a49da" stroke-linecap="round" stroke-linejoin="round" stroke-width="2" style="fill: rgb(255, 255, 255);"/>
    <path d="M 467.099 253.182 C 469.519 255.596 472.798 256.951 476.216 256.951 C 479.634 256.951 482.913 255.596 485.333 253.182 C 486.299 252.226 487.067 251.089 487.592 249.836 C 488.118 248.582 488.392 247.238 488.397 245.879 C 488.402 244.52 488.139 243.173 487.623 241.916 C 487.107 240.659 486.348 239.516 485.389 238.552 C 484.622 237.784 483.71 237.175 482.707 236.759 C 481.704 236.343 480.629 236.129 479.544 236.129 C 478.458 236.129 477.383 236.343 476.38 236.759 C 475.377 237.175 474.465 237.784 473.698 238.552 C 472.459 239.793 471.763 241.474 471.763 243.227 C 471.763 244.98 472.459 246.661 473.698 247.901 C 474.692 248.891 476.037 249.446 477.44 249.446 C 478.842 249.446 480.187 248.891 481.181 247.901 C 481.577 247.51 481.89 247.044 482.105 246.53 C 482.319 246.017 482.429 245.466 482.429 244.91 C 482.429 244.354 482.319 243.803 482.105 243.289 C 481.89 242.776 481.577 242.31 481.181 241.919" stroke="#3a49da" stroke-linecap="round" stroke-linejoin="round" stroke-width="2" style="fill: rgb(255, 255, 255);"/>
    <path d="M 469.322 225.676 L 469.322 225.375 C 469.322 221.43 467.754 217.646 464.965 214.857 C 462.175 212.067 458.392 210.5 454.447 210.5 C 450.502 210.5 446.718 212.067 443.929 214.857 C 441.139 217.646 439.572 221.43 439.572 225.375 C 439.562 227.365 439.949 229.338 440.711 231.177 C 441.474 233.016 442.595 234.684 444.011 236.084 C 446.262 238.333 449.315 239.596 452.497 239.596 C 455.679 239.596 458.732 238.333 460.983 236.084 C 462.781 234.284 463.791 231.843 463.791 229.299 C 463.791 226.754 462.781 224.314 460.983 222.513 C 459.538 221.081 457.586 220.277 455.551 220.277 C 453.517 220.277 451.564 221.081 450.12 222.513 C 449.549 223.083 449.097 223.76 448.788 224.505 C 448.479 225.25 448.32 226.048 448.32 226.854 C 448.32 227.661 448.479 228.459 448.788 229.204 C 449.097 229.949 449.549 230.626 450.12 231.196" stroke="#3a49da" stroke-linecap="round" stroke-linejoin="round" stroke-width="2" style="fill: rgb(255, 255, 255);"/>
    <path d="M 469.323 225.676 C 470.931 225.241 472.618 225.182 474.253 225.504 C 475.887 225.826 477.426 226.521 478.749 227.533 C 480.072 228.546 481.145 229.849 481.883 231.343 C 482.621 232.837 483.005 234.481 483.005 236.147 L 483.005 236.848" stroke="#3a49da" stroke-linecap="round" stroke-linejoin="round" stroke-width="2" style="fill: rgb(255, 255, 255);"/>
  </g>
</svg>
